source/img/svg/logo.svg

<svg width="130" height="26" viewBox="0 0 130 26" fill="none" xmlns="http://www.w3.org/2000/svg">
<path d="M112.982 0.364719H116.594L120.768 17.6633L124.927 0.364719H128.117L122.299 25.6526H119.222L112.982 0.364719ZM111.521 0.364719H114.964L115.498 17.0381V25.6526H111.521V0.364719ZM126.543 0.364719H130V25.6526H126.037V17.0381L126.543 0.364719Z" fill="white"/>
<path d="M98.9299 0.364719L102.05 11.7582L105.141 0.364719H109.624L104.115 16.4649V25.6526H99.9698V16.4649L94.4612 0.364719H98.9299Z" fill="white"/>
<path d="M93.9365 12.3661V22.7869C93.6461 23.169 93.2199 23.6148 92.6578 24.1242C92.105 24.6221 91.379 25.0621 90.4796 25.4442C89.5896 25.8147 88.5029 26 87.2194 26C86.0859 26 85.0553 25.78 84.1279 25.34C83.2098 24.9 82.4182 24.2342 81.753 23.3427C81.0972 22.4395 80.596 21.3164 80.2494 19.9733C79.9027 18.6186 79.7294 17.0149 79.7294 15.1623V10.855C79.7294 9.0256 79.8934 7.43353 80.2213 6.07882C80.5585 4.71253 81.0457 3.57782 81.6827 2.67468C82.3198 1.77154 83.0786 1.09998 83.9592 0.659986C84.8492 0.219995 85.8517 0 86.9665 0C88.5029 0 89.7629 0.318414 90.7466 0.955243C91.7397 1.59207 92.4891 2.53574 92.995 3.78624C93.5103 5.03674 93.8194 6.57091 93.9225 8.38877H89.9456C89.88 7.32353 89.7348 6.48986 89.51 5.88777C89.2945 5.28568 88.99 4.85727 88.5966 4.60253C88.2031 4.33622 87.6925 4.20307 87.0648 4.20307C86.5215 4.20307 86.0484 4.32465 85.6455 4.5678C85.2427 4.79937 84.9054 5.18147 84.6338 5.71409C84.3621 6.24671 84.1607 6.92985 84.0295 7.76352C83.8983 8.59719 83.8328 9.61611 83.8328 10.8203V15.1623C83.8328 16.3549 83.9077 17.3738 84.0576 18.2191C84.2075 19.0643 84.4277 19.7533 84.7181 20.2859C85.0179 20.8185 85.3926 21.2064 85.8423 21.4495C86.3013 21.6811 86.84 21.7969 87.4583 21.7969C87.9548 21.7969 88.353 21.7332 88.6528 21.6059C88.9526 21.4785 89.1915 21.3453 89.3695 21.2064C89.5568 21.0559 89.7114 20.9401 89.8332 20.859V16.2044H86.8962V12.3661H93.9365Z" fill="white"/>
<path d="M63.1099 0.364719H69.6724C71.0402 0.364719 72.2065 0.654187 73.1715 1.23312C74.1364 1.81206 74.8765 2.66888 75.3918 3.80359C75.907 4.93831 76.1647 6.33933 76.1647 8.00666C76.1647 9.37295 76.0148 10.5424 75.715 11.515C75.4152 12.476 74.9889 13.2808 74.4362 13.9292C73.8835 14.566 73.223 15.0755 72.4548 15.4576L71.2041 16.3781H65.8782L65.8642 12.1576H69.56C70.1221 12.1576 70.5858 12.0071 70.9512 11.7061C71.3259 11.3934 71.6023 10.9592 71.7803 10.4035C71.9676 9.8361 72.0613 9.17611 72.0613 8.4235C72.0613 7.62457 71.977 6.94142 71.8084 6.37407C71.6491 5.79513 71.3915 5.35514 71.0355 5.05409C70.6889 4.74147 70.2345 4.58516 69.6724 4.58516H67.2273V25.6526H63.1099V0.364719ZM72.3986 25.6526L68.6466 14.3807L72.9607 14.3634L76.797 25.4095V25.6526H72.3986Z" fill="white"/>
<path d="M59.6855 21.4495V25.6526H50.7903V21.4495H59.6855ZM52.069 0.364719V25.6526H47.9517V0.364719H52.069ZM58.4911 10.6119V14.6934H50.7903V10.6119H58.4911ZM59.6574 0.364719V4.58516H50.7903V0.364719H59.6574Z" fill="white"/>
<path d="M39.5719 16.7428H35.3842V12.5224H39.5719C40.1527 12.5224 40.6258 12.3603 40.9912 12.0361C41.3659 11.7118 41.6376 11.2661 41.8062 10.6987C41.9748 10.1198 42.0592 9.47137 42.0592 8.75349C42.0592 8.02403 41.9702 7.34668 41.7922 6.72143C41.6235 6.0846 41.3565 5.56935 40.9912 5.17567C40.6352 4.78199 40.1621 4.58516 39.5719 4.58516H36.7051V25.6526H32.6018V0.364719H39.5719C40.949 0.364719 42.1341 0.723659 43.1271 1.44154C44.1202 2.15942 44.879 3.1494 45.4037 4.41148C45.9377 5.66198 46.2047 7.09773 46.2047 8.71875C46.2047 10.3513 45.9377 11.7697 45.4037 12.9739C44.879 14.1665 44.1202 15.0928 43.1271 15.7528C42.1341 16.4128 40.949 16.7428 39.5719 16.7428Z" fill="white"/>
<path d="M25.3508 0.364719H29.4541V17.7328C29.4541 19.678 29.1637 21.2643 28.5829 22.4916C28.0114 23.7074 27.2198 24.5989 26.208 25.1663C25.1962 25.7221 24.0392 26 22.737 26C21.4254 26 20.2591 25.7221 19.2379 25.1663C18.2168 24.5989 17.4205 23.7074 16.849 22.4916C16.2869 21.2643 16.0059 19.678 16.0059 17.7328V0.364719H20.1092V17.7328C20.1092 18.8327 20.2076 19.678 20.4043 20.2685C20.6104 20.859 20.9055 21.2643 21.2896 21.4843C21.6831 21.6927 22.1655 21.7969 22.737 21.7969C23.3179 21.7969 23.7956 21.6927 24.1704 21.4843C24.5545 21.2643 24.8449 20.859 25.0416 20.2685C25.2477 19.678 25.3508 18.8327 25.3508 17.7328V0.364719Z" fill="white"/>
<path d="M9.27467 19.0007C9.27467 18.5491 9.24188 18.1381 9.1763 17.7675C9.11072 17.397 8.97019 17.0555 8.75472 16.7428C8.54862 16.4302 8.24415 16.1176 7.84131 15.805C7.44784 15.4923 6.93258 15.1681 6.29553 14.8323C5.53669 14.4387 4.80128 14.0218 4.08928 13.5818C3.37729 13.1303 2.73556 12.6092 2.16409 12.0187C1.59262 11.4282 1.13825 10.7335 0.800994 9.93455C0.473102 9.12404 0.309156 8.17459 0.309156 7.08619C0.309156 6.02095 0.463733 5.05413 0.772889 4.18573C1.09141 3.31732 1.54109 2.57629 2.12193 1.96261C2.70277 1.33737 3.38197 0.856849 4.15955 0.521067C4.94649 0.185284 5.82243 0.0173931 6.78737 0.0173931C8.09894 0.0173931 9.23251 0.353175 10.1881 1.02474C11.153 1.6963 11.8978 2.61681 12.4224 3.78626C12.9564 4.95571 13.2234 6.29884 13.2234 7.81565H9.12009C9.12009 7.09777 9.03577 6.46673 8.86714 5.92253C8.70788 5.36675 8.45025 4.93255 8.09425 4.61993C7.73826 4.3073 7.27921 4.15099 6.71711 4.15099C6.19248 4.15099 5.75685 4.28414 5.41022 4.55045C5.07296 4.80519 4.82002 5.15834 4.65139 5.60991C4.49212 6.0499 4.41249 6.54778 4.41249 7.10356C4.41249 7.52039 4.49212 7.8967 4.65139 8.23248C4.82002 8.55669 5.04954 8.85194 5.33996 9.11825C5.63038 9.37298 5.97232 9.62193 6.36579 9.86508C6.76863 10.1082 7.20895 10.3456 7.68673 10.5772C8.6142 11.0287 9.43393 11.5266 10.1459 12.0708C10.8579 12.6034 11.4528 13.2055 11.9306 13.8771C12.4084 14.5371 12.7691 15.2839 13.0126 16.1176C13.2562 16.9512 13.378 17.9007 13.378 18.9659C13.378 20.0196 13.2281 20.9806 12.9283 21.849C12.6379 22.7059 12.2116 23.4469 11.6495 24.0721C11.0874 24.6858 10.4082 25.1605 9.61193 25.4963C8.82499 25.8321 7.94436 26 6.97005 26C6.02385 26 5.12917 25.8379 4.28602 25.5137C3.44287 25.1779 2.69808 24.6742 2.05167 24.0027C1.41462 23.3195 0.913414 22.4569 0.548048 21.4148C0.182683 20.3612 0 19.1165 0 17.6807H4.11739C4.11739 18.4449 4.17828 19.0991 4.30007 19.6433C4.42186 20.1759 4.60923 20.6043 4.86217 20.9285C5.11512 21.2412 5.42427 21.4785 5.78964 21.6406C6.16437 21.7911 6.59063 21.8664 7.06842 21.8664C7.61178 21.8664 8.04273 21.739 8.36125 21.4843C8.68914 21.2296 8.92335 20.888 9.06388 20.4596C9.2044 20.0312 9.27467 19.5449 9.27467 19.0007Z" fill="white"/>
</svg>

<svg width="130" height="26" fill="none" xmlns="http://www.w3.org/2000/svg"><path d="M112.982.365h3.612l4.174 17.298L124.927.365h3.19l-5.818 25.288h-3.077L112.982.365Zm-1.461 0h3.443l.534 16.673v8.615h-3.977V.365Zm15.022 0H130v25.288h-3.963v-8.615l.506-16.673ZM98.93.365l3.12 11.393L105.141.365h4.483l-5.509 16.1v9.188H99.97v-9.188L94.46.365h4.469ZM93.936 12.366v10.42c-.29.383-.716.829-1.278 1.338-.553.498-1.279.938-2.178 1.32-.89.37-1.977.556-3.26.556-1.134 0-2.165-.22-3.092-.66-.918-.44-1.71-1.106-2.375-1.997-.656-.904-1.157-2.027-1.504-3.37-.346-1.354-.52-2.958-.52-4.81v-4.308c0-1.83.164-3.421.492-4.776.337-1.366.825-2.501 1.462-3.404S83.079 1.1 83.959.66C84.85.22 85.852 0 86.966 0c1.537 0 2.797.318 3.78.955.994.637 1.743 1.58 2.249 2.831.515 1.25.824 2.785.927 4.603h-3.976c-.066-1.065-.211-1.9-.436-2.501-.216-.602-.52-1.03-.913-1.285-.394-.267-.904-.4-1.532-.4-.543 0-1.017.122-1.42.365-.402.231-.74.613-1.011 1.146-.272.533-.473 1.216-.605 2.05-.13.833-.196 1.852-.196 3.056v4.342c0 1.193.075 2.212.225 3.057.15.845.37 1.534.66 2.067.3.532.675.92 1.124 1.163.46.232.998.348 1.616.348.497 0 .895-.064 1.195-.191.3-.128.538-.26.716-.4a6.78 6.78 0 0 1 .464-.347v-4.655h-2.937v-3.838h7.04ZM63.11.365h6.562c1.368 0 2.535.29 3.5.868.964.58 1.704 1.436 2.22 2.57.515 1.135.773 2.536.773 4.204 0 1.366-.15 2.535-.45 3.508-.3.961-.726 1.766-1.279 2.414a6.325 6.325 0 0 1-1.981 1.529l-1.25.92h-5.327l-.014-4.22h3.696c.562 0 1.026-.15 1.391-.452.375-.313.651-.747.83-1.303.187-.567.28-1.227.28-1.98 0-.798-.084-1.482-.253-2.049-.159-.579-.417-1.019-.773-1.32-.346-.313-.8-.469-1.363-.469h-2.445v21.068H63.11V.365Zm9.289 25.288L68.647 14.38l4.314-.018 3.836 11.047v.243h-4.398ZM59.685 21.45v4.203H50.79V21.45h8.895ZM52.07.364v25.288h-4.117V.365h4.117Zm6.422 10.247v4.081h-7.7v-4.081h7.7ZM59.657.365v4.22H50.79V.365h8.867ZM39.572 16.743h-4.188v-4.22h4.188c.58 0 1.054-.163 1.42-.487.374-.324.646-.77.814-1.337a6.95 6.95 0 0 0 .253-1.946c0-.729-.089-1.406-.267-2.032-.169-.636-.436-1.152-.8-1.545-.357-.394-.83-.59-1.42-.59h-2.867v21.067h-4.103V.365h6.97c1.377 0 2.562.359 3.555 1.077.993.717 1.752 1.707 2.277 2.97.534 1.25.8 2.686.8 4.307 0 1.632-.266 3.05-.8 4.255-.525 1.192-1.284 2.119-2.277 2.779-.993.66-2.178.99-3.555.99ZM25.35.365h4.104v17.368c0 1.945-.29 3.531-.871 4.759-.572 1.215-1.363 2.107-2.375 2.674-1.012.556-2.169.834-3.471.834-1.312 0-2.478-.278-3.5-.834-1.02-.567-1.816-1.459-2.388-2.674-.562-1.228-.843-2.814-.843-4.76V.366h4.103v17.368c0 1.1.099 1.945.295 2.535.206.591.502.996.886 1.216.393.209.876.313 1.447.313.58 0 1.059-.104 1.433-.313.384-.22.675-.625.872-1.216.206-.59.309-1.435.309-2.535V.365ZM9.275 19c0-.45-.033-.862-.099-1.233a2.578 2.578 0 0 0-.421-1.024c-.206-.313-.51-.625-.914-.938-.393-.313-.908-.637-1.545-.973a33.79 33.79 0 0 1-2.207-1.25 10.47 10.47 0 0 1-1.925-1.563A6.723 6.723 0 0 1 .801 9.935C.473 9.124.309 8.175.309 7.086c0-1.065.155-2.032.464-2.9.318-.869.768-1.61 1.349-2.223A6 6 0 0 1 4.16.52C4.946.185 5.822.017 6.787.017c1.312 0 2.446.336 3.401 1.008.965.671 1.71 1.592 2.234 2.761.534 1.17.801 2.513.801 4.03H9.12c0-.718-.084-1.35-.253-1.893-.16-.556-.417-.99-.773-1.303-.356-.313-.815-.469-1.377-.469-.525 0-.96.133-1.307.4-.337.254-.59.607-.759 1.059-.159.44-.239.938-.239 1.494 0 .416.08.793.24 1.128.168.325.398.62.688.886.29.255.632.504 1.026.747.403.243.843.48 1.32.712.928.452 1.748.95 2.46 1.494a8.179 8.179 0 0 1 1.785 1.806c.477.66.838 1.407 1.082 2.24.243.834.365 1.784.365 2.849 0 1.054-.15 2.015-.45 2.883a6.31 6.31 0 0 1-1.279 2.223 5.76 5.76 0 0 1-2.037 1.424c-.787.336-1.668.504-2.642.504-.946 0-1.84-.162-2.684-.486a6.318 6.318 0 0 1-2.234-1.511C1.415 23.32.913 22.457.548 21.415.183 20.36 0 19.116 0 17.68h4.117c0 .764.061 1.418.183 1.962.122.533.31.961.562 1.285.253.313.562.55.928.713.374.15.8.225 1.278.225.544 0 .975-.127 1.293-.382.328-.254.562-.596.703-1.024.14-.429.21-.915.21-1.46Z" fill="#fff"/></svg>
